static/card-icons/email-plane.svg

<svg viewBox="0 0 512 512" xmlns="http://www.w3.org/2000/svg"><path d="m493.085.532c-.147.04-.295.076-.442.12-.036.011-.073.019-.11.03l-481.973 149.574c-6.271 1.947-10.549 7.743-10.56 14.31s4.247 12.377 10.513 14.344l185.845 58.35-35.104 94.179c-2.052 5.505-.703 11.7 3.451 15.855 4.161 4.161 10.36 5.5 15.855 3.451l94.178-35.103 58.352 185.845c1.965 6.257 7.763 10.513 14.32 10.513h.024c6.567-.011 12.363-4.289 14.31-10.56l149.571-481.976c.011-.037.019-.075.031-.112.043-.144.079-.289.118-.433 3.033-11.237-7.302-21.375-18.379-18.387zm-427.709 164.142 354.237-109.933-206.554 156.302zm135.474 146.472 27.634-74.133 191.136-144.635-144.637 191.136zm146.473 135.476-46.369-147.685 156.302-206.553z"/><path d="m119.25 307.857c-5.86-5.861-15.363-5.861-21.225 0l-90.049 90.049c-5.861 5.861-5.861 15.363 0 21.225 5.86 5.861 15.363 5.861 21.225 0l90.049-90.049c5.861-5.862 5.861-15.364 0-21.225z"/><path d="m204.141 392.747c-5.861-5.862-15.364-5.862-21.225 0l-90.049 90.049c-5.861 5.861-5.861 15.363 0 21.225 5.86 5.861 15.364 5.861 21.225 0l90.049-90.049c5.861-5.861 5.861-15.363 0-21.225z"/><path d="m131.679 380.319c-5.86-5.861-15.363-5.861-21.225 0l-106.058 106.058c-5.861 5.861-5.861 15.363 0 21.225 5.86 5.861 15.364 5.861 21.225 0l106.058-106.058c5.861-5.862 5.861-15.364 0-21.225z"/></svg>

<?xml version="1.0" encoding="iso-8859-1"?>
<!-- Generator: Adobe Illustrator 19.0.0, SVG Export Plug-In . SVG Version: 6.00 Build 0)  -->
<svg version="1.1" id="Capa_1" xmlns="http://www.w3.org/2000/svg" xmlns:xlink="http://www.w3.org/1999/xlink" x="0px" y="0px"
	 viewBox="0 0 512 512" style="enableBackground:new 0 0 512 512;" xml:space="preserve">
<g>
	<g>
		<path d="M493.085,0.532c-0.147,0.04-0.295,0.076-0.442,0.12c-0.036,0.011-0.073,0.019-0.11,0.03L10.56,150.256
			c-6.271,1.947-10.549,7.743-10.56,14.31s4.247,12.377,10.513,14.344l185.845,58.35l-35.104,94.179
			c-2.052,5.505-0.703,11.7,3.451,15.855c4.161,4.161,10.36,5.5,15.855,3.451l94.178-35.103l58.352,185.845
			c1.965,6.257,7.763,10.513,14.32,10.513c0.008,0,0.017,0,0.024,0c6.567-0.011,12.363-4.289,14.31-10.56L511.315,19.464
			c0.011-0.037,0.019-0.075,0.031-0.112c0.043-0.144,0.079-0.289,0.118-0.433C514.497,7.682,504.162-2.456,493.085,0.532z
			 M65.376,164.674L419.613,54.741L213.059,211.043L65.376,164.674z M200.85,311.146l27.634-74.133L419.62,92.378L274.983,283.514
			L200.85,311.146z M347.323,446.622l-46.369-147.685L457.256,92.384L347.323,446.622z"/>
	</g>
</g>
<g>
	<g>
		<path d="M119.25,307.857c-5.86-5.861-15.363-5.861-21.225,0L7.976,397.906c-5.861,5.861-5.861,15.363,0,21.225
			c5.86,5.861,15.363,5.861,21.225,0l90.049-90.049C125.111,323.22,125.111,313.718,119.25,307.857z"/>
	</g>
</g>
<g>
	<g>
		<path d="M204.141,392.747c-5.861-5.862-15.364-5.862-21.225,0l-90.049,90.049c-5.861,5.861-5.861,15.363,0,21.225
			c5.86,5.861,15.364,5.861,21.225,0l90.049-90.049C210.002,408.111,210.002,398.609,204.141,392.747z"/>
	</g>
</g>
<g>
	<g>
		<path d="M131.679,380.319c-5.86-5.861-15.363-5.861-21.225,0L4.396,486.377c-5.861,5.861-5.861,15.363,0,21.225
			c5.86,5.861,15.364,5.861,21.225,0l106.058-106.058C137.54,395.682,137.54,386.18,131.679,380.319z"/>
	</g>
</g>
<g>
</g>
<g>
</g>
<g>
</g>
<g>
</g>
<g>
</g>
<g>
</g>
<g>
</g>
<g>
</g>
<g>
</g>
<g>
</g>
<g>
</g>
<g>
</g>
<g>
</g>
<g>
</g>
<g>
</g>
</svg>
